X:30
T:Samuels Hornpipe. Le4.030
B:L.Leadley MS#4 c1850
Z:Village Music Project, 2016 Steve Mansfield
M:C
L:1/8
Q:2/4=75
K:G
d2 | gdBd gdBd | efgf edcB | cded cBAG | FGAB AFED |
gdBd gdBd | efge edcB | cded cBAG | D2F2 G2 :|
|: A2 | DGBd DGBd | cBAG FAFD | GBAc Bdge | dBGB AFED |
DGBd DGBd | dBAG FAFD | gfed cBAG | D2F2 G2 :|

